X:7040
%8467
T:Kenlock Jig, The
S:from Silver Apple News
I:speed 280
E:14
K:Cmaj
M:4/4
F| E3 ECA,
%Error : Bar 1 is 3/4 not 4/4
| G,Cz G3
%Error : Bar 2 is 3/4 not 4/4
| A3 GEC
%Error : Bar 3 is 3/4 not 4/4
| F3 F2 E 
%Error : Bar 4 is 3/4 not 4/4
| FGF FDB,
%Error : Bar 5 is 3/4 not 4/4
| G,B,D FEF
%Error : Bar 6 is 3/4 not 4/4
|
A3 GEC
%Error : Bar 7 is 3/4 not 4/4
| E3 EGF
%Error : Bar 8 is 3/4 not 4/4
| E2 E ECA,
%Error : Bar 9 is 3/4 not 4/4
| G,Cz G3
%Error : Bar 10 is 3/4 not 4/4
| A3 GEC
%Error : Bar 11 is 3/4 not 4/4
| F3 F2 E 
%Error : Bar 12 is 3/4 not 4/4
|
FGF FDB,
%Error : Bar 13 is 3/4 not 4/4
| G,B,D FEF
%Error : Bar 14 is 3/4 not 4/4
| GAG FED
%Error : Bar 15 is 3/4 not 4/4
| C3 C,2
%Error : Bar 16 is 5/8 not 4/4
|| c
%Error : Bar 17 is 1/8 not 4/4
| e3 c3
%Error : Bar 18 is 3/4 not 4/4
|
GAG E2 C
%Error : Bar 19 is 3/4 not 4/4
| G,CE G,CE
%Error : Bar 20 is 3/4 not 4/4
| F3 FEF
%Error : Bar 21 is 3/4 not 4/4
| d3 B3
%Error : Bar 22 is 3/4 not 4/4
| GAG E2 F
%Error : Bar 23 is 3/4 not 4/4
| GAG FED
%Error : Bar 24 is 3/4 not 4/4
|
E2 F G2 c
%Error : Bar 25 is 3/4 not 4/4
| ced c2 A
%Error : Bar 26 is 3/4 not 4/4
| GAG E2 D
%Error : Bar 27 is 3/4 not 4/4
| CEG CEG
%Error : Bar 28 is 3/4 not 4/4
| F3 FEF
%Error : Bar 29 is 3/4 not 4/4
|
d3 B3
%Error : Bar 30 is 3/4 not 4/4
| GAG E2 F
%Error : Bar 31 is 3/4 not 4/4
| GAG FED
%Error : Bar 32 is 3/4 not 4/4
| C3 c2
%Error : Bar 33 is 5/8 not 4/4
||


